packages/calcite-ui-icons/icons/subheading-3-rtl-16.svg

<?xml version="1.0" encoding="UTF-8"?><svg id="icons" xmlns="http://www.w3.org/2000/svg" viewBox="0 0 16 16"><path d="M15,5v3c0,.55176-.44824,1-1,1h-2s0-1,0-1h2v-1h-2s0-1,0-1h2v-1h-2s0-1,0-1h2c.55176,0,1,.44824,1,1ZM15.00003,1H1.00003s0,.99988,0,.99988h14s0-.99988,0-.99988ZM15,10H1.00003s0,1,0,1h13.99997s0-1,0-1ZM15,14H1.00003s0,1,0,1h13.99997s0-1,0-1ZM10,5H1.00003s0,2,0,2h8.99997s0-2,0-2Z" style="fill-rule:evenodd;"/><rect width="16" height="16" style="fill:none;"/></svg>

<svg xmlns="http://www.w3.org/2000/svg" viewBox="0 0 16 16"><path d="M15 5v3a1 1 0 0 1-1 1h-2V8h2V7h-2V6h2V5h-2V4h2a1 1 0 0 1 1 1zm0-4H1v1h14V1zm0 9H1v1h14v-1zm0 4H1v1h14v-1zm-5-9H1v2h9V5z" fill-rule="evenodd"/><path fill="none" d="M0 0h16v16H0z"/></svg>
